SVG_Azure_All/IoT Windows 10 Core.svg

<?xml version="1.0" encoding="UTF-8" standalone="no"?>
<!-- Generated by Microsoft Visio, SVG Export IoT Windows 10 Core.svg Page-1 -->

<svg
   xmlns:dc="http://purl.org/dc/elements/1.1/"
   xmlns:cc="http://creativecommons.org/ns#"
   xmlns:rdf="http://www.w3.org/1999/02/22-rdf-syntax-ns#"
   xmlns:svg="http://www.w3.org/2000/svg"
   xmlns="http://www.w3.org/2000/svg"
   xmlns:sodipodi="http://sodipodi.sourceforge.net/DTD/sodipodi-0.dtd"
   xmlns:inkscape="http://www.inkscape.org/namespaces/inkscape"
   width="0.78757221in"
   height="0.7905435in"
   viewBox="0 0 56.705274 56.918821"
   xml:space="preserve"
   class="st6"
   version="1.1"
   id="svg53"
   sodipodi:docname="IoT Windows 10 Core.svg"
   style="font-size:12px;overflow:visible;color-interpolation-filters:sRGB;fill:none;fill-rule:evenodd;stroke-linecap:square;stroke-miterlimit:3"
   inkscape:version="0.92.5 (2060ec1f9f, 2020-04-08)"><metadata
   id="metadata57"><rdf:RDF><cc:Work
       rdf:about=""><dc:format>image/svg+xml</dc:format><dc:type
         rdf:resource="http://purl.org/dc/dcmitype/StillImage" /></cc:Work></rdf:RDF></metadata><sodipodi:namedview
   pagecolor="#ffffff"
   bordercolor="#666666"
   borderopacity="1"
   objecttolerance="10"
   gridtolerance="10"
   guidetolerance="10"
   inkscape:pageopacity="0"
   inkscape:pageshadow="2"
   inkscape:window-width="640"
   inkscape:window-height="480"
   id="namedview55"
   showgrid="false"
   inkscape:zoom="1.428068"
   inkscape:cx="37.801551"
   inkscape:cy="37.575961"
   inkscape:window-x="0"
   inkscape:window-y="0"
   inkscape:window-maximized="0"
   inkscape:current-layer="svg53" />
	<style
   type="text/css"
   id="style2">
	<![CDATA[
		.st1 {fill:url(#grad0-6);stroke:none;stroke-linecap:butt;stroke-width:33.2348}
		.st2 {fill:#32bedd;stroke:none;stroke-linecap:butt;stroke-width:33.2348}
		.st3 {fill:#50e6ff;stroke:none;stroke-linecap:butt;stroke-width:33.2348}
		.st4 {fill:#f2f2f2;stroke:none;stroke-linecap:butt;stroke-width:33.2348}
		.st5 {fill:#86d633;stroke:none;stroke-linecap:butt;stroke-width:33.2348}
		.st6 {fill:none;fill-rule:evenodd;font-size:12px;overflow:visible;stroke-linecap:square;stroke-miterlimit:3}
	]]>
	</style>

	<defs
   id="Patterns_And_Gradients">
		<linearGradient
   id="grad0-6"
   x1="0"
   y1="64.956983"
   x2="54.757046"
   y2="64.956983"
   gradientTransform="scale(0.96590309,1.0353006)"
   gradientUnits="userSpaceOnUse">
			<stop
   offset="0"
   stop-color="#0078d4"
   stop-opacity="1"
   id="stop4" />
			<stop
   offset="0.06"
   stop-color="#0a7cd7"
   stop-opacity="1"
   id="stop6" />
			<stop
   offset="0.34"
   stop-color="#2e8ce1"
   stop-opacity="1"
   id="stop8" />
			<stop
   offset="0.59"
   stop-color="#4897e9"
   stop-opacity="1"
   id="stop10" />
			<stop
   offset="0.82"
   stop-color="#589eed"
   stop-opacity="1"
   id="stop12" />
			<stop
   offset="1"
   stop-color="#5ea0ef"
   stop-opacity="1"
   id="stop14" />
		</linearGradient>
	</defs>
	<g
   id="g51"
   transform="translate(-33.2348,-33.234724)">
		<title
   id="title18">Page-1</title>
		<g
   id="group3792-1"
   transform="translate(33.2348,-34.0157)">
			<title
   id="title20">IoT Windows 10 Core</title>
			<g
   id="group3793-2">
				<title
   id="title22">layer1</title>
				<g
   id="shape3794-3">
					<title
   id="title24">path17</title>
					<path
   d="M 48.79,78.29 44.26,73.83 H 43.8 l -6.1,3.33 -4.37,-1.96 -2.75,-7.95 -6.33,0.07 -0.3,0.89 -2.16,6.92 -4.37,1.9 -7.41,-3.33 -4.4,4.49 0.46,0.9 3.28,6.42 L 7.61,89.93 0,92.82 v 6.48 l 0.89,0.3 6.82,2.13 1.87,4.42 -3.28,7.55 4.56,4.49 0.82,-0.46 6.33,-3.33 2.03,2.53 5.25,7.01 h 6.34 l 0.29,-0.89 2.27,-4.06 3.6,-1.83 7.16,-0.43 4.46,-4.62 v -0.44 l 0.88,-3.32 2.6,-7.88 z m -20.87,31.82 a 14.3373,14.5306 0 1 1 14.3,-14.4 14.3045,14.4974 0 0 1 -14.3,14.4 z"
   class="st1"
   id="path26"
   inkscape:connector-curvature="0"
   style="fill:url(#grad0-6);stroke:none;stroke-width:33.23479843;stroke-linecap:butt" />
				</g>
				<g
   id="shape3795-7"
   transform="translate(18.0775,-15.8181)">
					<title
   id="title29">path19</title>
					<path
   d="m 19.72,111.17 c 0,6.45 -7.84,11.63 -9.55,12.7 a 0.754593,0.76477 0 0 1 -0.655958,0 C 7.81,122.8 0,117.62 0,111.17 v -7.75 a 0.62336,0.631767 0 0 1 0.590241,-0.63176 C 6.69,102.79 5.28,99.96 9.84,99.96 c 4.56,0 3.28,2.66 9.25,2.83 a 0.656168,0.665018 0 0 1 0.623722,0.63176 z"
   class="st2"
   id="path31"
   inkscape:connector-curvature="0"
   style="fill:#32bedd;stroke:none;stroke-width:33.23479843;stroke-linecap:butt" />
				</g>
				<g
   id="shape3796-9"
   transform="translate(18.8979,-16.8163)">
					<title
   id="title34">path21</title>
					<path
   d="m 18.08,112.23 c 0,5.92 -7.19,10.67 -8.76,11.64 a 0.62336,0.631767 0 0 1 -0.590244,0 C 7.15,122.9 0,118.15 0,112.23 v -7.12 a 0.557743,0.565265 0 0 1 0.524519,-0.56528 C 6.13,104.55 4.86,101.96 9.02,101.96 c 4.17,0 2.92,2.46 8.5,2.59 a 0.590551,0.598516 0 0 1 0.557999,0.56528 z"
   class="st3"
   id="path36"
   inkscape:connector-curvature="0"
   style="fill:#50e6ff;stroke:none;stroke-width:33.23479843;stroke-linecap:butt" />
				</g>
				<g
   id="shape3797-11"
   transform="translate(23.4889,-23.4752)">
					<title
   id="title39">path23</title>
					<path
   d="M 8.4,117.73 H 7.84 v -1.87 A 3.74016,3.7906 -180 0 0 6.86,113.3 3.08399,3.12558 -180 0 0 4.43,112.24 3.28084,3.32509 -180 0 0 2,113.3 3.74016,3.7906 -180 0 0 1.02,115.86 v 2 H 0.46 A 0.459318,0.465512 -180 0 0 -3.9e-5,118.32549 L 0,123.51 a 0.459318,0.465512 -180 0 0 0.460039,0.43231 L 8.4,123.94 a 0.426509,0.432261 -180 0 0 0.4588,-0.43231 L 8.86,118.19 a 0.459318,0.465512 -180 0 0 -0.4588,-0.46549 z m -2.16,0 H 2.63 v -1.87 a 1.9357,1.9618 0 0 1 0.55,-1.39 1.70604,1.72905 0 0 1 1.25,-0.57 1.64042,1.66254 0 0 1 1.25,0.57 l 0.23,0.26 a 2.19816,2.22781 0 0 1 0.33,1.13 z"
   class="st4"
   id="path41"
   inkscape:connector-curvature="0"
   style="fill:#f2f2f2;stroke:none;stroke-width:33.23479843;stroke-linecap:butt" />
				</g>
				<g
   id="shape3798-13"
   transform="translate(15.7761,-1.08317)">
					<title
   id="title44">path25</title>
					<path
   d="m 29.5,74.82 2.33,-4.89 A 0.492126,0.498763 -180 0 0 31.600603,69.231763 L 31.34,69.23 13.26,70.63 a 0.524934,0.532014 -180 0 0 -0.4588,0.565275 0.426509,0.432261 -180 0 0 0,0.266049 L 23.04,86.42 a 0.524934,0.532014 -180 0 0 0.721679,0 L 23.92,86.22 25.96,81.93 A 0.557743,0.565265 0 0 1 26.64944,81.663951 20.7677,21.0478 0 0 1 34.26,96.8 21.063,21.3471 0 0 1 13.62,118.61 21.916,22.2116 0 0 1 3.42,116.28 0.524934,0.532014 -180 0 0 2.730559,116.47944 L 0.04,121.4 A 0.524934,0.532014 -180 0 0 0.23716,122.09824 27.9528,28.3298 -180 0 0 37.8,110.1 27.2638,27.6315 -180 0 0 40.92,96.53 27.6247,27.9972 -180 0 0 29.63,75.45 0.557743,0.565265 0 0 1 29.498559,74.818244 Z"
   class="st5"
   id="path46"
   inkscape:connector-curvature="0"
   style="fill:#86d633;stroke:none;stroke-width:33.23479843;stroke-linecap:butt" />
				</g>
			</g>
		</g>
	</g>
</svg>

<?xml version="1.0" encoding="UTF-8" standalone="no"?>
<!DOCTYPE svg PUBLIC "-//W3C//DTD SVG 1.1//EN" "http://www.w3.org/Graphics/SVG/1.1/DTD/svg11.dtd">
<!-- Generated by Microsoft Visio, SVG Export IoT Windows 10 Core.svg Page-1 -->
<svg xmlns="http://www.w3.org/2000/svg" xmlns:xlink="http://www.w3.org/1999/xlink" xmlns:ev="http://www.w3.org/2001/xml-events"
		width="1.71072in" height="1.72144in" viewBox="0 0 123.172 123.943" xml:space="preserve" color-interpolation-filters="sRGB"
		class="st6">
	<style type="text/css">
	<![CDATA[
		.st1 {fill:url(#grad0-6);stroke:none;stroke-linecap:butt;stroke-width:33.2348}
		.st2 {fill:#32bedd;stroke:none;stroke-linecap:butt;stroke-width:33.2348}
		.st3 {fill:#50e6ff;stroke:none;stroke-linecap:butt;stroke-width:33.2348}
		.st4 {fill:#f2f2f2;stroke:none;stroke-linecap:butt;stroke-width:33.2348}
		.st5 {fill:#86d633;stroke:none;stroke-linecap:butt;stroke-width:33.2348}
		.st6 {fill:none;fill-rule:evenodd;font-size:12px;overflow:visible;stroke-linecap:square;stroke-miterlimit:3}
	]]>
	</style>

	<defs id="Patterns_And_Gradients">
		<linearGradient id="grad0-6" x1="0" y1="0" x2="1" y2="0" gradientTransform="rotate(-90 0.5 0.5)">
			<stop offset="0" stop-color="#0078d4" stop-opacity="1"/>
			<stop offset="0.06" stop-color="#0a7cd7" stop-opacity="1"/>
			<stop offset="0.34" stop-color="#2e8ce1" stop-opacity="1"/>
			<stop offset="0.59" stop-color="#4897e9" stop-opacity="1"/>
			<stop offset="0.82" stop-color="#589eed" stop-opacity="1"/>
			<stop offset="1" stop-color="#5ea0ef" stop-opacity="1"/>
		</linearGradient>
	</defs>
	<g>
		<title>Page-1</title>
		<g id="group3708-1" transform="translate(33.2348,-34.0157)">
			<title>IoT Windows 10 Core</title>
			<g id="group3709-2">
				<title>layer1</title>
				<g id="shape3710-3">
					<title>path17</title>
					<path d="M48.79 78.29 L44.26 73.83 L43.8 73.83 L37.7 77.16 L33.33 75.2 L30.58 67.25 L24.25 67.32 L23.95 68.21
								 L21.79 75.13 L17.42 77.03 L10.01 73.7 L5.61 78.19 L6.07 79.09 L9.35 85.51 L7.61 89.93 L0 92.82 L0
								 99.3 L0.89 99.6 L7.71 101.73 L9.58 106.15 L6.3 113.7 L10.86 118.19 L11.68 117.73 L18.01 114.4 L20.04
								 116.93 L25.29 123.94 L31.63 123.94 L31.92 123.05 L34.19 118.99 L37.79 117.16 L44.95 116.73 L49.41
								 112.11 L49.41 111.67 L50.29 108.35 L52.89 100.47 L48.79 78.29 ZM27.92 110.11 A14.3373 14.5306 0
								 1 1 42.22 95.71 A14.3045 14.4974 0 0 1 27.92 110.11 Z" class="st1"/>
				</g>
				<g id="shape3711-7" transform="translate(18.0775,-15.8181)">
					<title>path19</title>
					<path d="M19.72 111.17 C19.72 117.62 11.88 122.8 10.17 123.87 a0.754593 0.76477 0 0 1 -0.655958 0 C7.81 122.8
								 0 117.62 0 111.17 L0 103.42 a0.62336 0.631767 0 0 1 0.590241 -0.631756 C6.69 102.79 5.28 99.96 9.84
								 99.96 C14.4 99.96 13.12 102.62 19.09 102.79 a0.656168 0.665018 0 0 1 0.623722 0.631756 L19.72 111.17
								 Z" class="st2"/>
				</g>
				<g id="shape3712-9" transform="translate(18.8979,-16.8163)">
					<title>path21</title>
					<path d="M18.08 112.23 C18.08 118.15 10.89 122.9 9.32 123.87 a0.62336 0.631767 0 0 1 -0.590244 -1.42109E-14 C7.15
								 122.9 0 118.15 0 112.23 L0 105.11 a0.557743 0.565265 0 0 1 0.524519 -0.565276 C6.13 104.55 4.86
								 101.96 9.02 101.96 C13.19 101.96 11.94 104.42 17.52 104.55 a0.590551 0.598516 0 0 1 0.557999 0.565276
								 L18.08 112.23 Z" class="st3"/>
				</g>
				<g id="shape3713-11" transform="translate(23.4889,-23.4752)">
					<title>path23</title>
					<path d="M8.4 117.73 L7.84 117.73 L7.84 115.86 A3.74016 3.7906 -180 0 0 6.86 113.3 A3.08399 3.12558 -180 0 0
								 4.43 112.24 A3.28084 3.32509 -180 0 0 2 113.3 A3.74016 3.7906 -180 0 0 1.02 115.86 L1.02 117.86
								 L0.46 117.86 a0.459318 0.465512 -180 0 0 -0.460039 0.46549 L0 123.51 a0.459318 0.465512 -180 0 0
								 0.460039 0.432314 L8.4 123.94 a0.426509 0.432261 -180 0 0 0.4588 -0.432314 L8.86 118.19 a0.459318
								 0.465512 -180 0 0 -0.4588 -0.465493 L8.4 117.73 ZM6.24 117.73 L2.63 117.73 L2.63 115.86 A1.9357
								 1.9618 0 0 1 3.18 114.47 A1.70604 1.72905 0 0 1 4.43 113.9 A1.64042 1.66254 0 0 1 5.68 114.47 L5.91
								 114.73 A2.19816 2.22781 0 0 1 6.24 115.86 L6.24 117.73 Z" class="st4"/>
				</g>
				<g id="shape3714-13" transform="translate(15.7761,-1.08317)">
					<title>path25</title>
					<path d="M29.5 74.82 L31.83 69.93 a0.492126 0.498763 -180 0 0 -0.229397 -0.698237 L31.34 69.23 L13.26 70.63 a0.524934
								 0.532014 -180 0 0 -0.4588 0.565275 a0.426509 0.432261 -180 0 0 -1.86517E-13 0.266049 L23.04 86.42
								 a0.524934 0.532014 -180 0 0 0.721679 1.56319E-13 L23.92 86.22 L25.96 81.93 a0.557743 0.565265 0
								 0 1 0.68944 -0.266049 A20.7677 21.0478 0 0 1 34.26 96.8 A21.063 21.3471 0 0 1 13.62 118.61 A21.916
								 22.2116 0 0 1 3.42 116.28 a0.524934 0.532014 -180 0 0 -0.689441 0.19944 L0.04 121.4 a0.524934 0.532014
								 -180 0 0 0.19716 0.698236 A27.9528 28.3298 -180 0 0 37.8 110.1 A27.2638 27.6315 -180 0 0 40.92 96.53
								 A27.6247 27.9972 -180 0 0 29.63 75.45 a0.557743 0.565265 0 0 1 -0.131441 -0.631756 L29.5 74.82 Z"
							class="st5"/>
				</g>
			</g>
		</g>
	</g>
</svg>
